!!!SOCIAL_FUNCTION:	songs of games played in a ceremonial manner
!!!PDT:	1932
!!!OTL: No_19_Dancing_Song_from_the_South_God_(b).krn
!!!REG: Wisconsin
!!!LANG: Non-Tone
!!!LING_GROUP: Algonquin
**kern
*staff1
=1-
*clefF4
*k[f#]
*M3/4
2r
8r
8D\
=2
8.G\L
16G\Jk
8G\L
8E\J
8G\
16r
16G\
=3||
*M2/4
8A\L
8B\J
4A\
=4||
*M3/4
8G\L
8D\J
4.D\
8D\
=5
8.G\L
16G\Jk
8G\L
8E\J
8G\
16r
16G\
=6||
*M2/4
8A\L
8B\J
4A\
=7||
*M3/4
8G\L
8D\J
4.D\
8D\
=8
8.G\L
16G\Jk
8G\L
8E\J
8G\
16r
16G\
=9||
*M2/4
8A\L
8B\J
4A\
=10
8G\L
8D\J
8D\
8r
==
*-
